X:441
T: "Das Ewige"
N: Z1121
O: Europa, Mitteleuropa, Deutschland
R: religioeses Lied
M: 4/4
L: 1/4
K: E
eeee | =d=cB2 | =c=dee | =d=cB2 |
ABcA | A=FE2 | AAAA | =G=FE2 |
A^GAA | =cBA2 | =c=dee | =d=cB2 |
ABcA | A=FE2 | AAAA | =G=FE2

@@@ Tune index: 10199
